X:0673
T:The Bob of Fettercairn.
M:C
L:1/8
Q:1/2=104
I: S || || DS
Z:Jack Campin * www.campin.me.uk * 2009
K:G Lydian
B/c/|dBGB  dBGB|dBde Tf2df   |ecAc ecAc | e>def      g2fe |
     dBGB  dBGB|dBde Tfdfg   |aefd e>dBa| A/A/A (Bd) e2g2||
     d>gBg dgBg|dgBg Tf2df   |eaca Aaca |Te>def      g2fe |
     dgBg  dgBg|dgBg Tf2de/f/|aefd e>dBa| A/A/A  Bd  e2g2||
% segno repeat...
     dBGB  dBGB|dBde Tf2df   |ecAc ecAc | e>def      g2fe |
     dBGB  dBGB|dBde Tfdfg   |aefd e>dBa| A/A/A (Bd) e2g2||

